!!!!SEGMENT: pl-kk--kk-i-6--044_anonim--beata-viscera-maria.krn
!!!id: 16xx:1037
!!!COM: Anonim
!!!COM-rism: pe30004985
!!!CDT:
!!!CNT:
!!!OTL: Beata viscera Maria
!!!PDT:
!!!SMS-siglum: PL-Kk
!!!SMS-shelfmark: Kk.I.6
!!!NIFC-rismID: 1001136531
!!!URL-scan: http://repozytorium.nifc.pl/skany/pl-kk-nut--i-6
!!!ONB-nifc: UWAGA: C (skan 0066-0067, s. 129-130), T (skan 0178-0179, s. 161-162), B (skan 0287, s. 156-157) Następny utwór: Gaude Maria Virgo
!!!SMS-variant:
!!!SMS-altvar:
**kern	**text	**kern	**text	**kern	**text	**text	**kern	**text	**text
*part4	*part4	*part3	*part3	*part2	*part2	*part2	*part1	*part1	*part1
*staff4	*staff4	*staff3	*staf3	*staff2	*staff2	*staff2	*staff1	*staff1	*staff1
*I"Baſsus2.	*	*I"Baſsus1.	*	*I"Tenor.	*	*	*I"Cantus.	*	*
*I'B	*	*I'B	*	*I'T	*	*	*I'S	*	*
*clefF4	*	*clefF4	*	*clefC4	*	*	*clefC1	*	*
*k[]	*	*k[]	*	*k[]	*	*	*k[]	*	*
*M2/1	*	*M2/1	*	*M2/1	*	*	*M2/1	*	*
*met(C|)	*	*met(C|)	*	*met(C|)	*	*	*met(C|)	*	*
=1-	=1-	=1-	=1-	=1-	=1-	=1-	=1-	=1-	=1-
!LO:TX:b:t=Inton.	!	!	!	!	!	!	!LO:TX:b:t=Int&colon;	!	!
!	!	!	!	!LO:TX:t=P:problem:intonatio	!	!	!LO:TX:t=P:problem:intonatio	!	!
!LO:TX:a:t=Post Commu\nnio	!	!	!	!LO:TX:a:t=Post Commu\nnio.	!	!	!LO:TX:a:t=Post Communio	!	!
1AA/	Be-	0ryy	.	1r	.	.	2r	.	.
*	*	*	*	*	*	*	*2\right	*	*
!	!	!	!	!	!	!	!LO:TX:t=P:problem:kreska pseudotaktowa	!	!
.	.	.	.	.	.	.	2a\	Be-	.
1D\	-a-	.	.	1D/	Be-	.	2.a\	-a-	.
!	!	!	!	!	!	!	!LO:TX:t=P:problem:kreska pseudotaktowa	!	!
.	.	.	.	.	.	.	4g\	.	.
=2-	=2-	=2-	=2-	=2-	=2-	=2-	=2-	=2-	=2-
*lig	*	*	*	*2\right	*	*	*	*	*
1F\	-ta	0ryy	.	2.A\	-a-	.	2f/	.	.
.	.	.	.	.	.	.	2.cc\	.	.
.	.	.	.	4B\	.	.	.	.	.
!LO:TX:t=P:problem:kreska pseudotaktowa	!	!	!	!	!	!	!	!	!
1E\	.	.	.	4c\	.	.	.	.	.
.	.	.	.	4G/	.	.	4dd\	.	.
.	.	.	.	2.c\	.	.	4cc\	.	.
.	.	.	.	.	.	.	4b-X\	.	.
!	!	!	!	!	!	!	!LO:TX:t=P:problem:kreska pseudotaktowa	!	!
*Xlig	*	*	*	*	*	*	*	*	*
=3-	=3-	=3-	=3-	=3-	=3-	=3-	=3-	=3-	=3-
*lig	*	*	*	*	*	*	*	*	*
1F\	Vi-	0ryy	.	.	.	.	2a\	.	.
.	.	.	.	4B-X\	.	.	.	.	.
.	.	.	.	4A\	.	.	2cc\	.	.
.	.	.	.	4F/	.	.	.	.	.
!	!	!	!	!	!	!	!LO:TX:t=P:problem:kreska pseudotaktowa	!	!
1G\	.	.	.	2B-X\	.	.	1b-X\	.	.
.	.	.	.	2G/	.	.	.	.	.
*Xlig	*	*	*	*	*	*	*	*	*
=4-	=4-	=4-	=4-	=4-	=4-	=4-	=4-	=4-	=4-
*lig	*	*	*	*	*	*	*	*	*
1F\	.	0ryy	.	1A\	-ta	.	2a\	-ta	.
!	!	!	!	!	!	!	!LO:LB:g=original	!	!
.	.	.	.	.	.	.	2dd\	Be-	.
1E\	.	.	.	1r	.	.	2dd\	-a-	.
.	.	.	.	.	.	.	2cc#X\	-ta	.
!	!	!	!	!	!	!	!LO:TX:t=P:problem:kreska pseudotaktowa	!	!
*Xlig	*	*	*	*	*	*	*	*	*
=5-	=5-	=5-	=5-	=5-	=5-	=5-	=5-	=5-	=5-
1D\	.	0ryy	.	2r	.	.	2.dd\	vi-	.
.	.	.	.	2d\	be-	.	.	.	.
!	!	!	!	!	!	!	!LO:TX:t=P:problem:kreska pseudotaktowa	!	!
.	.	.	.	.	.	.	4dd\	-sce-	.
1E\	-sce-	.	.	2d\	-a-	.	2bn\	-ra	.
!	!	!	!	!LO:LB:g=original	!	!	!	!	!
.	.	.	.	2c#X\	-ta	.	2ee\	be-	.
=6-	=6-	=6-	=6-	=6-	=6-	=6-	=6-	=6-	=6-
*lig	*	*	*	*	*	*	*	*	*
1F\	-ra	0ryy	.	2.d\	vi-	.	2.a\	-a-	.
!	!	!	!	!	!	!	!LO:TX:t=P:problem:kreska pseudotaktowa	!	!
.	.	.	.	4d\	-sce-	.	4g/	.	.
1D\	.	.	.	2A/	-ra	.	4f/	.	.
.	.	.	.	.	.	.	4e/	.	.
.	.	.	.	1A\	Ma-	.	4f/	.	.
.	.	.	.	.	.	.	4g/	.	.
*Xlig	*	*	*	*	*	*	*	*	*
!LO:LB:g=original	!	!	!	!	!	!	!	!	!
=7-	=7-	=7-	=7-	=7-	=7-	=7-	=7-	=7-	=7-
1F\	Ma-	0ryy	.	.	.	.	2a\	.	.
.	.	.	.	1c\	-ri-	.	2a\	-ta	.
*lig	*	*	*	*	*	*	*	*	*
1G\	-ri-	.	.	.	.	.	1r	.	.
!	!	!	!	!LO:N:acc=#	!	!	!	!	!
.	.	.	.	2Bn\	-a	.	.	.	.
=8-	=8-	=8-	=8-	=8-	=8-	=8-	=8-	=8-	=8-
1A\	.	0ryy	.	2.e\	Vir-	.	1a\	Ma-	.
.	.	.	.	4d\	.	.	.	.	.
*Xlig	*	*	*	*	*	*	*	*	*
*lig	*	*	*	*	*	*	*	*	*
1A\	ae	.	.	4c\	.	.	1cc\	-ri-	.
.	.	.	.	4B\	.	.	.	.	.
.	.	.	.	2A/	.	.	.	.	.
=9-	=9-	=9-	=9-	=9-	=9-	=9-	=9-	=9-	=9-
1G\	.	0ryy	.	4d\	.	.	2g/	-ae	.
.	.	.	.	4d\	-gi-	.	.	.	.
.	.	.	.	2G/	-nis	.	2g/	be-	.
*Xlig	*	*	*	*	*	*	*	*	*
!LO:TX:t=P:problem:kreska pseudotaktowa	!	!	!	!	!	!	!	!	!
1F\	.	.	.	2.c\	Vir-	.	4a\	-a-	.
.	.	.	.	.	.	.	4g\	.	.
.	.	.	.	.	.	.	4a\	.	.
!	!	!	!	!	!	!	!LO:SIC:v:s=4b-	!	!
!	!	!	!	!	!	!	!LO:TX:t=P:problem:kreska pseudotaktowa	!	!
.	.	.	.	4B-X\	.	.	4b\	.	.
=10-	=10-	=10-	=10-	=10-	=10-	=10-	=10-	=10-	=10-
*lig	*	*	*	*	*	*	*	*	*
1F\	Vir-	0ryy	.	4A/	.	.	2cc\	.	.
.	.	.	.	4G/	.	.	.	.	.
.	.	.	.	2F/	.	.	2a\	-ta	.
1G\	.	.	.	2.B-X\	.	.	4b-X\	vi-	.
.	.	.	.	.	.	.	4a\	-sce-	.
.	.	.	.	.	.	.	4g/	-ra	.
.	.	.	.	4B-\	-gi-	.	4g/	Ma-	.
!	!	!	!	!	!	!	!LO:TX:t=P:problem:kreska pseudotaktowa	!	!
*Xlig	*	*	*	*	*	*	*	*	*
!	!	!	!	!	!	!	!LO:LB:g=original	!	!
=11-	=11-	=11-	=11-	=11-	=11-	=11-	=11-	=11-	=11-
*lig	*	*	*	*	*	*	*lig	*	*
1A\	.	0ryy	.	1A\	-nis	.	1cc\	-ri-	.
1G\	.	.	.	2r	.	.	1b-X\	.	.
.	.	.	.	2d\	quae	.	.	.	.
*Xlig	*	*	*	*	*	*	*Xlig	*	*
!	!	!	!	!LO:LB:g=original	!	!	!	!	!
=12-	=12-	=12-	=12-	=12-	=12-	=12-	=12-	=12-	=12-
*lig	*	*	*	*	*	*	*	*	*
!	!	!	!	!	!	!	!LO:TX:t=P:problem:kreska pseudotaktowa	!	!
1A\	.	0ryy	.	2d\	por-	.	1a\	ae	.
.	.	.	.	2c#X\	-ta-	.	.	.	.
*col	*	*	*	*	*	*	*	*	*
2.B-X\	.	.	.	1d\	-ve-	.	2.dd\	Vir-	.
*Xlig	*	*	*	*	*	*	*	*	*
4B-\	-gi-	.	.	.	.	.	4dd\	-gi-	.
*Xcol	*	*	*	*	*	*	*	*	*
=13-	=13-	=13-	=13-	=13-	=13-	=13-	=13-	=13-	=13-
!LO:TX:t=P:problem:kreska pseudotaktowa	!	!	!	!	!	!	!	!	!
1A\	-nis	0ryy	.	1c#X\	-runt	.	1a\	-nis	.
1F\	quae	.	.	0r	.	.	2r	.	.
!	!	!	!	!	!	!	!LO:TX:t=P:problem:kreska pseudotaktowa	!	!
.	.	.	.	.	.	.	2dd\	quae	.
=14-	=14-	=14-	=14-	=14-	=14-	=14-	=14-	=14-	=14-
*lig	*	*	*	*	*	*	*	*	*
1G\	por-	0ryy	.	.	.	.	2dd\	por-	.
.	.	.	.	.	.	.	2dd\	-ta-	.
1A\	.	.	.	1r	.	.	2.cc\	-ve-	.
.	.	.	.	.	.	.	4bn\	.	.
!	!	!	!	!	!	!	!LO:TX:t=P:problem:kreska pseudotaktowa	!	!
*Xlig	*	*	*	*	*	*	*	*	*
=15-	=15-	=15-	=15-	=15-	=15-	=15-	=15-	=15-	=15-
*lig	*	*	*	*	*	*	*	*	*
1A\	-ta-	0ryy	.	2r	.	.	4a\	.	.
.	.	.	.	.	.	.	4b\	.	.
.	.	.	.	2A/	quae	.	4cc\	.	.
!	!	!	!	!	!	!	!LO:TX:t=P:problem:kreska pseudotaktowa	!	!
.	.	.	.	.	.	.	4a\	.	.
1F\	.	.	.	2A/	por-	.	2.dd\	.	.
.	.	.	.	2A/	-ta-	.	.	.	.
.	.	.	.	.	.	.	4cc\	.	.
*Xlig	*	*	*	*	*	*	*	*	*
=16-	=16-	=16-	=16-	=16-	=16-	=16-	=16-	=16-	=16-
*lig	*	*	*	*	*	*	*	*	*
1G\	.	0ryy	.	4G/	-ve-	.	4b-X\	.	.
.	.	.	.	4F/	.	.	4a\	.	.
!	!	!	!	!	!	!	!LO:TX:t=P:problem:kreska pseudotaktowa	!	!
.	.	.	.	4G/	.	.	2g/	.	.
.	.	.	.	4E/	.	.	.	.	.
1F\	.	.	.	2.A/	.	.	2a\	.	.
.	.	.	.	.	.	.	1dd\	.	.
.	.	.	.	4F/	.	.	.	.	.
*Xlig	*	*	*	*	*	*	*	*	*
=17-	=17-	=17-	=17-	=17-	=17-	=17-	=17-	=17-	=17-
1E\	.	0ryy	.	2.G/	.	.	.	.	.
.	.	.	.	.	.	.	2cc#X\	.	.
.	.	.	.	4E/	.	.	.	.	.
*lig	*	*	*	*	*	*	*	*	*
1D\	-ve-	.	.	4F/	.	.	1dd\	-runt	.
.	.	.	.	4E/	.	.	.	.	.
.	.	.	.	4F/	.	.	.	.	.
.	.	.	.	4G/	.	.	.	.	.
=18-	=18-	=18-	=18-	=18-	=18-	=18-	=18-	=18-	=18-
1F\	.	0ryy	.	2A/	.	.	0r	.	.
.	.	.	.	1d\	.	.	.	.	.
1E\	.	.	.	.	.	.	.	.	.
.	.	.	.	2c#X\	.	.	.	.	.
*Xlig	*	*	*	*	*	*	*	*	*
!LO:PB:g=original	!	!	!	!	!	!	!LO:LB:g=original	!	!
=19-	=19-	=19-	=19-	=19-	=19-	=19-	=19-	=19-	=19-
!LO:TX:t=P:problem:kreska pseudotaktowa	!	!	!	!	!	!	!	!	!
1D\	-runt	0ryy	.	2d\	-runt	.	1a\	ae-	.
.	.	.	.	1A\	ae-	.	.	.	.
!	!	!	!	!	!	!	!LO:TX:t=P:problem:kreska pseudotaktowa	!	!
1A\	ae-	.	.	.	.	.	1cc\	-ter-	.
!	!	!	!	!LO:LB:g=original	!	!	!	!	!
.	.	.	.	2.c\	-ter-	.	.	.	.
=20-	=20-	=20-	=20-	=20-	=20-	=20-	=20-	=20-	=20-
*lig	*	*	*	*	*	*	*	*	*
1c\	-ter-	0ryy	.	.	.	.	2g/	-ni	.
.	.	.	.	4d\	.	.	.	.	.
.	.	.	.	4e\	.	.	2.ee\	Pa-	.
.	.	.	.	4d\	.	.	.	.	.
1A\	.	.	.	1c\	.	.	.	.	.
.	.	.	.	.	.	.	4dd\	.	.
.	.	.	.	.	.	.	4cc\	.	.
.	.	.	.	.	.	.	4a\	-tris	.
!	!	!	!	!	!	!	!LO:TX:t=P:problem:kreska pseudotaktowa	!	!
*Xlig	*	*	*	*	*	*	*	*	*
=21-	=21-	=21-	=21-	=21-	=21-	=21-	=21-	=21-	=21-
*lig	*	*	*	*	*	*	*	*	*
1G\	.	0ryy	.	1Bn\	-ni	.	4b\	Fi-	.
.	.	.	.	.	.	.	4cc\	.	.
.	.	.	.	.	.	.	1dd\	.	.
1A\	.	.	.	4A\	Pa-	.	.	.	.
.	.	.	.	4B\	.	.	.	.	.
.	.	.	.	4c#X\	.	.	2cc#X\	-li-	.
.	.	.	.	4A\	.	.	.	.	.
*Xlig	*	*	*	*	*	*	*	*	*
=22-	=22-	=22-	=22-	=22-	=22-	=22-	=22-	=22-	=22-
1B-X\	.	0ryy	.	4d\	.	.	1dd\	-um	.
.	.	.	.	4A\	.	.	.	.	.
.	.	.	.	1d\	.	.	.	.	.
!LO:TX:t=P:problem:kreska pseudotaktowa	!	!	!	!	!	!	!	!	!
1A\	-ni	.	.	.	.	.	1r	.	.
.	.	.	.	2c#X\	.	.	.	.	.
=23-	=23-	=23-	=23-	=23-	=23-	=23-	=23-	=23-	=23-
*lig	*	*	*	*	*	*	*	*	*
1D\	Pa-	0ryy	.	1d\	-tris	.	1a\	ae-	.
!	!	!	!	!	!	!	!LO:TX:t=P:problem:kreska pseudotaktowa	!	!
1C/	.	.	.	1r	.	.	1cc\	-ter-	.
*Xlig	*	*	*	*	*	*	*	*	*
=24-	=24-	=24-	=24-	=24-	=24-	=24-	=24-	=24-	=24-
*lig	*	*	*	*	*	*	*	*	*
1F\	.	0ryy	.	1A\	ae-	.	2a\	-ni	.
.	.	.	.	.	.	.	2.dd\	Pa-	.
1G\	.	.	.	1B-X\	-ter-	.	.	.	.
.	.	.	.	.	.	.	4cc\	.	.
.	.	.	.	.	.	.	4b-X\	.	.
.	.	.	.	.	.	.	4g\	.	.
!	!	!	!	!	!	!	!LO:TX:t=P:problem:kreska pseudotaktowa	!	!
*Xlig	*	*	*	*	*	*	*	*	*
=25-	=25-	=25-	=25-	=25-	=25-	=25-	=25-	=25-	=25-
*lig	*	*	*	*	*	*	*	*	*
1A\	.	0ryy	.	2A/	-ni	.	2cc\	.	.
!	!	!	!	!	!	!	!LO:TX:t=P:problem:kreska pseudotaktowa	!	!
*	*	*	*	*	*ij	*	*	*	*
.	.	.	.	2c\	ae-	.	2a\	.	.
!	!	!	!	!	!	!	!LO:TX:t=P:problem:kreska pseudotaktowa	!	!
1G\	.	.	.	2B-X\	-ter-	.	1b-X\	.	.
.	.	.	.	2G/	-ni	.	.	.	.
*Xlig	*	*	*	*	*Xij	*	*	*	*
=26-	=26-	=26-	=26-	=26-	=26-	=26-	=26-	=26-	=26-
*lig	*	*	*	*	*	*	*	*	*
1F\	.	0ryy	.	4A/	Pa-	.	2a\	-tris	.
.	.	.	.	4G/	.	.	.	.	.
!	!	!	!	!	!	!	!LO:PB:g=original	!	!
.	.	.	.	4A/	.	.	1dd\	Fi-	.
.	.	.	.	4F/	.	.	.	.	.
1E\	.	.	.	1G/	.	.	.	.	.
.	.	.	.	.	.	.	2cc#X\	-li-	.
!	!	!	!	!	!	!	!LO:TX:t=P:problem:kreska pseudotaktowa	!	!
*Xlig	*	*	*	*	*	*	*	*	*
!	!	!	!	!LO:PB:g=original	!	!	!	!	!
=27-	=27-	=27-	=27-	=27-	=27-	=27-	=27-	=27-	=27-
!LO:TX:t=P:problem:kreska pseudotaktowa	!	!	!	!	!	!	!	!	!
1D\	-tris	0ryy	.	2A/	-tris	.	2dd\	-um	.
*	*	*	*	*	*	*	*	*ij	*
.	.	.	.	2d\	Pa-	.	1a\	Fi-	.
!	!	!	!	!LO:TX:t=P:problem:♯ above	!	!	!	!	!
1.AA/	Fi-	.	.	2c#X\	-tris	.	.	.	.
!	!	!	!	!	!	!	!LO:TX:t=P:problem:kreska pseudotaktowa	!	!
.	.	.	.	1d\	Fi-	.	2a\	-li-	.
=28-	=28-	=28-	=28-	=28-	=28-	=28-	=28-	=28-	=28-
.	.	0ryy	.	.	.	.	1.a\	-um	.
*	*	*	*	*	*	*	*	*Xij	*
2AA/	-li-	.	.	2c#X\	-li-	.	.	.	.
1.D\	-um	.	.	2d\	-um	.	.	.	.
!	!	!	!	!	!	!	!LO:TX:t=P:problem:kreska pseudotaktowa	!	!
.	.	.	.	2D/	ae-	al-	2a\	ae-	al-
=29-	=29-	=29-	=29-	=29-	=29-	=29-	=29-	=29-	=29-
.	.	2ryy	.	2G/	-ter-	-le-	2b-X\	-ter-	-le-
!LO:TX:a:t=B1\nB2.	!	!	!	!	!	!	!LO:TX:t=P:problem:kreska pseudotaktowa	!	!
2D/	al-	2D/	ae-	2F#X/	-ni	-lu-	2a\	-ni	-lu-
!LO:LB:g=original	!	!	!	!	!	!	!	!	!
1D\	-leluja	2G/	-ter-	2B-X\	Pa-	-ia	2g\	Pa-	-ja
!	!	!	!	!	!	!	!LO:TX:t=P:problem:kreska pseudotaktowa	!	!
.	.	2F#X,/	-ni	2A/	-tris	al-	2a\	-tris	al-
=30-	=30-	=30-	=30-	=30-	=30-	=30-	=30-	=30-	=30-
!	!	!LO:SIC:v:s=2B-	!	!	!	!	!	!	!
1D\	alle-	2B/	Pa-	2G/	Pa-	-le-	2b-X\	Pa-	-le-
.	.	2A/	-tris	2A/	.	.	2cc\	.	.
1D\	.	2G/	Pa-	2B-X\	.	.	2g\	.	.
!	!	!	!	!	!	!	!LO:TX:t=P:problem:kreska pseudotaktowa	!	!
.	.	2F#X/	-tris	2d\	tris	.	2a\	-tris	.
=31-	=31-	=31-	=31-	=31-	=31-	=31-	=31-	=31-	=31-
1.ryy	.	1.G\	Fi-	1.B-X\	Fi-	.	2.b-X\	Fi-	.
.	.	.	.	.	.	.	4cc\	.	.
.	.	.	.	.	.	.	2dd\	.	.
2GG/	lu-	2GG/	-li-	2B-\	-li-	-lu-	2g/	-li-	-lu-
=32-	=32-	=32-	=32-	=32-	=32-	=32-	=32-	=32-	=32-
0D\	-ja.	0D\;	-um.	0d\;	-um	-ja.	0a\;;	-um.	-ja.
=-	=-	=-	=-	=-	=-	=-	=-	=-	=-
*-	*-	*-	*-	*-	*-	*-	*-	*-	*-
!!!system-decoration: [(s1,s2,s3,s4)]
!!!EED: Leszek Kubiak
!!!EST: 2021-03-24
!!!ENC: Krzysztof Stępień
!!!END: 2021-03-09
